X: 21392
T: Kerry, The
R: polka
M: 2/4
K: Dmajor
BD ED|BD ED|G2 A>B|AG ED|BD ED|BD ED|G2 A>B|AG G3/2A/|
BD ED|BD ED|G2 A>B|AG ED|BD ED|BD ED|G2 A>B|AG G3/2|
|:A/|Bd BA|AG ED|G2 A>B|AG ED|Bd BA|AG ED|G2 A>B|AG G2:|

